flaticon/pins-and-locations/pin-17.svg

<svg xmlns="http://www.w3.org/2000/svg" width="32" height="32" viewBox="0 0 24 24">
    <path d="M 18.398438 6.398438 C 18.398438 2.878906 15.519531 0 12 0 C 8.480469 0 5.601562 2.878906 5.601562 6.398438 C 5.601562 9.242188 7.480469 11.667969 10.058594 12.496094 L 10.800781 22.839844 C 10.839844 23.519531 11.359375 24 12 24 C 12.640625 24 13.160156 23.519531 13.199219 22.839844 L 13.980469 12.484375 C 16.539062 11.644531 18.398438 9.230469 18.398438 6.398438 Z M 12.398438 22.761719 C 12.398438 23 12.238281 23.199219 12 23.199219 C 11.761719 23.199219 11.601562 22.960938 11.601562 22.761719 L 10.878906 12.71875 C 11.34375 12.796875 11.835938 12.824219 12.324219 12.792969 C 12.59375 12.777344 12.859375 12.746094 13.117188 12.703125 Z M 12 12 C 8.921875 12 6.398438 9.480469 6.398438 6.398438 C 6.398438 3.320312 8.921875 0.800781 12 0.800781 C 15.078125 0.800781 17.601562 3.320312 17.601562 6.398438 C 17.601562 9.480469 15.078125 12 12 12 Z M 12 12"/>
    <path d="M9.949219 3.386719C9.882812 3.269531 9.757812 3.199219 9.601562 3.199219 9.441406 3.199219 9.316406 3.269531 9.25 3.386719L7.71875 4.921875C7.558594 5.078125 7.558594 5.320312 7.71875 5.480469 7.878906 5.640625 8.121094 5.640625 8.28125 5.480469L9.199219 4.558594 9.199219 9.199219C9.199219 9.441406 9.359375 9.601562 9.601562 9.601562 9.839844 9.601562 10 9.441406 10 9.199219L10 4.558594 10.921875 5.480469C11 5.558594 11.078125 5.601562 11.199219 5.601562 11.320312 5.601562 11.398438 5.558594 11.480469 5.480469 11.640625 5.320312 11.640625 5.078125 11.480469 4.921875zM15.878906 7.320312C15.71875 7.160156 15.480469 7.160156 15.320312 7.320312L14.398438 8.238281 14.398438 3.601562C14.398438 3.359375 14.238281 3.199219 14 3.199219 13.761719 3.199219 13.601562 3.359375 13.601562 3.601562L13.601562 8.238281 12.679688 7.320312C12.519531 7.160156 12.28125 7.160156 12.121094 7.320312 11.960938 7.480469 11.960938 7.71875 12.121094 7.878906L13.652344 9.410156C13.71875 9.527344 13.839844 9.601562 14 9.601562 14.160156 9.601562 14.28125 9.527344 14.347656 9.410156L15.878906 7.878906C16.039062 7.71875 16.039062 7.480469 15.878906 7.320312zM15.878906 7.320312"/>
</svg>

<svg xmlns="http://www.w3.org/2000/svg" width="32" height="32" viewBox="0 0 24 24">
    <path d="M18.398 6.398C18.398 2.878 15.52 0 12 0 8.48 0 5.602 2.879 5.602 6.398c0 2.844 1.878 5.27 4.457 6.098L10.8 22.84c.039.68.558 1.16 1.199 1.16.64 0 1.16-.48 1.2-1.16l.78-10.356c2.56-.84 4.418-3.254 4.418-6.086zm-6 16.364c0 .238-.16.437-.398.437-.238 0-.398-.238-.398-.437l-.723-10.043c.465.078.957.105 1.445.074.27-.016.535-.047.793-.09zM12 12c-3.078 0-5.602-2.52-5.602-5.602C6.398 3.32 8.922.801 12 .801c3.078 0 5.602 2.52 5.602 5.597C17.602 9.48 15.078 12 12 12zm0 0"/>
    <path d="M9.95 3.387a.383.383 0 0 0-.348-.188c-.16 0-.286.07-.352.188L7.719 4.922a.385.385 0 0 0 0 .558c.16.16.402.16.562 0L9.2 4.56v4.64c0 .242.16.403.403.403.238 0 .398-.16.398-.403V4.56l.922.921a.36.36 0 0 0 .277.122c.121 0 .2-.043.281-.122a.385.385 0 0 0 0-.558zm0 0M15.879 7.32a.385.385 0 0 0-.559 0l-.922.918V3.602c0-.243-.16-.403-.398-.403-.238 0-.398.16-.398.403v4.636l-.922-.918a.385.385 0 0 0-.559 0 .385.385 0 0 0 0 .559l1.531 1.531a.382.382 0 0 0 .348.192c.16 0 .281-.075.348-.192l1.53-1.531a.385.385 0 0 0 0-.559zm0 0"/>
</svg>
